X:1
T:Brunes et Blondes
C:Philppe Prieur
A:France
Z:abc transcription Simon Wascher
M:2/4
L:1/8
K:D
A2BA- | AGFG | A2BA- | A2GF |\
G2FD- | DEFD | G2FD- | DEFD :| 
EG-GB- | B2ef | g2fe- | edBG |1\
A3d- | dABA | B2AF- | FGED :|\
[2 A3c- | c2d2 | e3d- | d2c2 |]
